X: 3
T: Eileen Curran
R: reel
M: 4/4
L: 1/8
K: Ador
cBAG EAAc|BGdG eGdG|cBAG EAAB|cBcd eaab|(3c'ba bg agef|gedc BGGB|cBAG EAAB|1 cedB cAAB:|2 cedB cAA2|||:a2ag ac'ba|g2gf gabg|eaag a3b|(3c'ba bg eaab|(3c'ba bg agef|gedc BGGB|cBAG EAAB|1 cedB cAA2:|2 cedB cAAB||


Tune 132	Setting 132

